packages/nextjs/public/season-2/invader-11.svg

<svg width="96" height="96" viewBox="0 0 96 96" fill="none" xmlns="http://www.w3.org/2000/svg">
<path d="M13.6049 84.1152C13.7475 87.9155 13.6056 92.0989 13.5691 95.9305L0.13407 96L0.185515 84.0607L13.6049 84.1152Z" fill="#2563EB"/>
<path d="M95.88 95.9127L82.1269 95.9086L82.2002 84.0689C86.7331 84.081 91.489 84.1617 96 84.0484L95.88 95.9127Z" fill="#2563EB"/>
<path fill-rule="evenodd" clip-rule="evenodd" d="M13.6922 0C13.7471 7.94057 13.6746 16.1521 13.8793 24.0655L27.2847 24.1623L27.4016 0.085914L41.1282 0.0981874L40.9614 11.8752L54.8407 12.0361L54.9794 0.0981874L68.5313 0.0136371L68.6701 24.0382L82.1893 24.1432L82.2329 0.0927325L95.8987 0.0940963L95.9673 47.9236L82.1269 48.1268L82.2002 84.0689L68.8899 84.2257L68.4253 72.0041C54.7934 72.0098 40.9747 71.9153 27.3611 72.0696L27.3034 84.0566L13.7374 84.1207L13.6751 48.0614L0.049887 48.0436C0.0864358 32.3201 -0.180846 15.7584 0.243196 0.105006L13.6922 0ZM27.3361 36.1889L27.2738 47.8895L41.2669 48.0177L41.1437 36.0607L27.3361 36.1889ZM54.8921 47.9577L68.4799 48L68.3926 36.0784L55.0901 36.043L54.8921 47.9577Z" fill="#2563EB"/>
</svg>

<svg xmlns="http://www.w3.org/2000/svg" fill="none" viewBox="0 0 96 96"><g fill="#2563eb" clip-path="url(#a)"><path d="M13.605 84.115c.143 3.8 0 7.984-.036 11.816L.134 96l.052-11.94zM95.88 95.913l-13.753-.004.073-11.84c4.533.012 9.289.093 13.8-.02z"/><path fill-rule="evenodd" d="M13.692 0c.055 7.94-.017 16.152.187 24.066l13.406.096.117-24.076 13.726.012-.167 11.777 13.88.161.138-11.938L68.531.014l.14 24.024 13.518.105.044-24.05 13.666.001.068 47.83-13.84.203.073 35.942-13.31.157-.465-12.222c-13.632.006-27.45-.089-41.064.066l-.058 11.987-13.566.064-.062-36.06L.05 48.044C.086 32.32-.18 15.758.243.105zm13.644 36.189-.062 11.7 13.993.129-.123-11.957zm27.556 11.769L68.48 48l-.087-11.922-13.303-.035z" clip-rule="evenodd"/></g><defs><clipPath id="a"><path fill="#fff" d="M0 0h96v96H0z"/></clipPath></defs></svg>
